X: 686
T: Afterparty, The
R: reel
M: 4/4
K: Dmajor
|:A2FD FDFG|Adcd BAFA|B2Ad BcdB|ADDE FEEF|
A2FD FDFG|Adcd BAFA|B2Ad BAFG|1 AdFE FDFG:|2 AdFE FDFA||
|:B3B BAFA|B2Ad BAFG|A3B ADFG|AEFE FDFA|
B3B BAFA|B2Ad BAde|faec d2cA|1 BdAF EDFA:|2 BdAF EDFG||

